src/assets/filled/CreativeCommons.svg

<?xml version="1.0" encoding="UTF-8"?>
<svg width="24" height="24" viewBox="0 0 24 24" xmlns="http://www.w3.org/2000/svg">
 <path d="m12 2c-5.52 0-10 4.48-10 10s4.48 10 10 10 10-4.48 10-10-4.48-10-10-10zm-3.01 12.12c0.51 0 1.01-0.19 1.4-0.53 0.31-0.27 0.79-0.24 1.06 0.07s0.24 0.79-0.07 1.06c-0.66 0.58-1.51 0.9-2.39 0.9-2 0-3.62-1.62-3.62-3.62s1.62-3.62 3.62-3.62c0.88 0 1.72 0.32 2.39 0.9 0.31 0.27 0.34 0.75 0.07 1.06s-0.75 0.34-1.06 0.07c-0.39-0.34-0.89-0.53-1.4-0.53-1.17 0-2.12 0.95-2.12 2.12s0.95 2.12 2.12 2.12zm7 0c0.51 0 1.01-0.19 1.4-0.53 0.31-0.27 0.79-0.24 1.06 0.07s0.24 0.79-0.07 1.06c-0.66 0.58-1.51 0.9-2.39 0.9-2 0-3.62-1.62-3.62-3.62s1.62-3.62 3.62-3.62c0.88 0 1.72 0.32 2.39 0.9 0.31 0.27 0.34 0.75 0.07 1.06s-0.75 0.34-1.06 0.07c-0.39-0.34-0.88-0.53-1.4-0.53-1.17 0-2.12 0.95-2.12 2.12s0.95 2.12 2.12 2.12z"/>
</svg>

<svg width="24" height="24" viewBox="0 0 24 24"  xmlns="http://www.w3.org/2000/svg">
<path d="M12 2C6.48 2 2 6.48 2 12C2 17.52 6.48 22 12 22C17.52 22 22 17.52 22 12C22 6.48 17.52 2 12 2ZM8.99 14.12C9.5 14.12 10 13.93 10.39 13.59C10.7 13.32 11.18 13.35 11.45 13.66C11.72 13.97 11.69 14.45 11.38 14.72C10.72 15.3 9.87 15.62 8.99 15.62C6.99 15.62 5.37 14 5.37 12C5.37 10 6.99 8.38 8.99 8.38C9.87 8.38 10.71 8.7 11.38 9.28C11.69 9.55 11.72 10.03 11.45 10.34C11.18 10.65 10.7 10.68 10.39 10.41C10 10.07 9.5 9.88 8.99 9.88C7.82 9.88 6.87 10.83 6.87 12C6.87 13.17 7.82 14.12 8.99 14.12ZM15.99 14.12C16.5 14.12 17 13.93 17.39 13.59C17.7 13.32 18.18 13.35 18.45 13.66C18.72 13.97 18.69 14.45 18.38 14.72C17.72 15.3 16.87 15.62 15.99 15.62C13.99 15.62 12.37 14 12.37 12C12.37 10 13.99 8.38 15.99 8.38C16.87 8.38 17.71 8.7 18.38 9.28C18.69 9.55 18.72 10.03 18.45 10.34C18.18 10.65 17.7 10.68 17.39 10.41C17 10.07 16.51 9.88 15.99 9.88C14.82 9.88 13.87 10.83 13.87 12C13.87 13.17 14.82 14.12 15.99 14.12Z" />
</svg>
